X: 42375
T: Well May My True Love Arrive
R: strathspey
M: 4/4
K: Fdorian
B,|:E>GBB, C>EEd|e>cBB, DFFG|E>GBB, CEAc|1 B<G F>E E3B,:|2 B<G F>E E3B/4c/4d/||
e>f d>e c/=B/c/d/ eg|agfe d/c/d/e/ fB/4c/4d/|e>f d>e c/B/c/d/4e/4 f/e/d/c/|c/B/A/G/ B/A/G/F/ EG EB/4c/4d/|
e>f d>e c/=B/c/d/ e>g|agfe d>efg|e<g A<c G>ABc|e>c B<GE3||

